X:6
T:Catherine Young
T:P/M Catherine Young
R:Jig
C:Stewart Tartan Pipe Band, Arr. Adam Blaine
M:6/8
L:1/8
K:D
[|: {g}A{d}A{e}A {Gdc}d2 e | {g}fd{G}d {gdG}d2 c | {g}B{d}B{e}B {gef}e2 d | {g}cde {g}A2 f |
{g}A{d}A{e}A {Gdc}d2 e | {g}fd{G}d {gdG}d2 c | {g}Bcd {g}cde | {g}ABc [1 {Gdc}d2 f [2 {Gdc}d2 e  :|]
[| {g}fd{G}d ad{G}d | {g}fd{G}d {gdG}d2 c | {g}B{d}B{e}B {gef}e2 d | {g}cde {g}A2 e |
{g}fd{G}d ad{G}d | {g}fd{G}d {gdG}d2 c | {g}Bcd {g}cde | {g}ABc {Gdc}d2 e |
{g}fd{G}d ad{G}d | {g}fd{G}d {gdG}d2 c | {g}B{d}B{e}B {gef}e2 d | {g}cde {g}A2 f |
{g}A{d}A{e}A {Gdc}d2 e | {g}fd{G}d {gdG}d2 c | {g}Bcd {g}cde | {g}ABc {Gdc}d2 |]
